X:84
M:2/4
L:1/8
K:G
|:af ge|fdeA|af B^c|d2 d2|afge|fdeA|afge|B^c d2:|

